assets/icons/reply.svg

<svg xmlns="http://www.w3.org/2000/svg" viewBox="0 0 24 24" fill="none">
<path
        d="M1.84521 11.4494L9.99071 3.91478C10.471 3.47055 11.25 3.81116 11.25 4.46535V7.99994C11.25 8.27608 11.478 8.49949 11.7541 8.50388C19.8394 8.63247 22 11.9205 22 20.2499C20.5303 17.3105 19.7806 15.5711 11.7551 15.5021C11.4789 15.4997 11.25 15.7238 11.25 15.9999V19.5345C11.25 20.1887 10.471 20.5293 9.99071 20.0851L1.84521 12.5505C1.52425 12.2536 1.52425 11.7463 1.84521 11.4494Z"
        stroke="currentColor"
        stroke-width="1.5"
        stroke-linejoin="round"
    />
</svg>

<svg xmlns="http://www.w3.org/2000/svg" width="24" height="24" fill="none" viewBox="0 0 24 24">
  <path stroke="currentColor" stroke-linejoin="round" stroke-width="1.5" d="m1.845 11.45 8.146-7.535a.75.75 0 0 1 1.259.55V8c0 .276.228.5.504.504C19.84 8.632 22 11.92 22 20.25c-1.47-2.94-2.22-4.679-10.245-4.748a.501.501 0 0 0-.505.498v3.535a.75.75 0 0 1-1.26.55L1.846 12.55a.75.75 0 0 1 0-1.1Z"/>
</svg>
